teeny/solid/arrow-up-circle.svg

<svg width="15" height="15" viewBox="0 0 15 15" fill="none" xmlns="http://www.w3.org/2000/svg">
<path fill-rule="evenodd" clip-rule="evenodd" d="M7.49995 15C3.35782 15 -4.55953e-05 11.6421 -4.57764e-05 7.5C-4.59574e-05 3.35786 3.35782 1.81059e-07 7.49995 0C11.6421 -1.81059e-07 15 3.35786 15 7.5C15 11.6421 11.6421 15 7.49995 15ZM4.79292 6.50005L7.50003 3.79294L10.2071 6.50005L9.50003 7.20715L7.99995 5.70708V11H6.99995V5.70723L5.50003 7.20715L4.79292 6.50005Z" fill="black"/>
</svg>

<svg viewBox="0 0 15 15" xmlns="http://www.w3.org/2000/svg"><path fill-rule="evenodd" d="M7.49 15c-4.15 0-7.5-3.36-7.5-7.5C-.02 3.35 3.34 0 7.48 0c4.14-.01 7.5 3.35 7.5 7.5 0 4.14-3.36 7.5-7.51 7.5ZM4.78 6.5l2.7-2.71 2.7 2.7 -.71.7 -1.51-1.51v5.29h-1v-5.3l-1.5 1.49 -.71-.71Z"/></svg>
